X: 277
T: Little Mary Cullinan
B: O'Neill's 277
N: "With spirit"
Z: 1997 by John Chambers <jc@trillian.mit.edu>
M: C
L: 1/8
K:D
(f/e/) \
|dBAF A2AB|d2 ed/e/ feef|dBAF A2AB|d2 fed/e/ fd d||
|g \
|fefg a2gf|ebba be ef/e/|dBAF A2AB|df ed/e/ fd d||
